!!!OTL: Folk song Number 25
!!!CNT: Chinese
**kern
*k[]
*M4/4
=1
4ee
4ee
(4cc
8a
8cc)
=2
(2...dd
16ee)
=3
4cc
4g
4cc
4ee
=4
4a
(8cc
4.dd)
(8ee
8cc)
=5
1dd
=6
(8ee
8gg)
4cc
(8ee
8gg)
4cc
=7
4dd
8ee
8gg
4cc
4dd
=8
8cc
8cc
8a
8a
8a
8cc
4e
=9
4g
2.a
==
*-
!!!PPR: Yin yueh ch'u pan she
!!!OPR: Chung-kuo min ko Chung-kuo yin yueh yen chiu so pien [Chinese folk songs]
!!!OCL: Chung-kuo yin yueh yen chiu so
!!!PPP: Beijing, China
!!!PDT: 1959///
!!!SML: Edward Johnson Library, University of Toronto M1804.C4694C5
!!!PPG: p.20
!!!ENC: David Huron
!!!EMD: Paul von Hippel updated this file in the following ways (1998/9/29/):
!!!EMD:  (1) changed the representation of slurs from curly braces to parentheses 
!!!EMD:  (2) changed freeform comments into reference records and tandem interpretations
!!!EMD:  (3) corrected the author, title, author, and call number of the printed source 
!!!EEV: Version 2.0
